img/presents.svg

<svg xmlns="http://www.w3.org/2000/svg" width="64" height="76" viewBox="0 0 64 76"><path fill-rule="evenodd" clip-rule="evenodd" fill="#81B3D2" d="M61.097 22.5H36.312C50.125 15.603 51.23 11.25 50.72 8.817c-1.162-3.963-5.692-7.023-10.002-5.407-5.57 2.088-7.137 10.387-8.644 16.386-1.924-6.07-3.784-13.814-8.136-17.737C22.678.92 20.843-.206 18.175.03c-4.026.357-9.802 5.383-7.458 10.982 2.25 5.378 9.687 8.777 14.578 11.49H2.88C1.294 22.5 0 23.79 0 25.37v11.322c0 1.578 1.295 2.87 2.88 2.87h.273V76h57.84V39.56h.104c1.586 0 2.88-1.29 2.88-2.868V25.37c0-1.578-1.294-2.87-2.88-2.87zM42.413 5.945c2.103-.31 4.982 1.3 5.255 3.21.393 2.755-3.4 5.254-5.086 6.42-2.523 1.744-4.928 2.643-7.287 4.055.884-3.69 2.55-13.012 7.118-13.686zM19.53 15.912c-2.224-1.485-6.543-4.43-6.44-7.77.113-3.596 5.744-6.57 8.815-3.887 3.856 3.37 5.713 11.105 7.12 16.557-3.25-1.54-6.33-2.788-9.494-4.9zm5.973 57.114H6.136V39.56h19.368v33.466zm0-36.502H3.046V25.538h22.457v10.986zm10.157 0v36.504h-7.174V25.54h7.174v10.986zm22.35 36.502H38.645V39.56H58.01v33.466zm2.92-36.502H38.645V25.538H60.93v10.986z"/></svg>

<?xml version="1.0" encoding="utf-8"?>
<!-- Generator: Adobe Illustrator 15.0.0, SVG Export Plug-In . SVG Version: 6.00 Build 0)  -->
<!DOCTYPE svg PUBLIC "-//W3C//DTD SVG 1.1//EN" "http://www.w3.org/Graphics/SVG/1.1/DTD/svg11.dtd">
<svg version="1.1" id="Layer_1" xmlns="http://www.w3.org/2000/svg" xmlns:xlink="http://www.w3.org/1999/xlink" x="0px" y="0px"
	 width="64px" height="76px" viewBox="0 0 64 76" enable-background="new 0 0 64 76" xml:space="preserve">
<path fill-rule="evenodd" clip-rule="evenodd" fill="#81B3D2" d="M61.097,22.501h-0.103H36.312
	C50.125,15.602,51.229,11.25,50.72,8.816c-1.162-3.963-5.692-7.023-10.002-5.407c-5.569,2.089-7.137,10.388-8.644,16.387
	C30.15,13.726,28.29,5.982,23.938,2.059c-1.261-1.138-3.095-2.264-5.763-2.028c-4.026,0.356-9.802,5.382-7.458,10.981
	c2.251,5.378,9.687,8.777,14.578,11.489H3.153H2.879C1.295,22.501,0,23.792,0,25.37v11.322c0,1.578,1.295,2.869,2.879,2.869h0.274
	v33.466v2.435V76h57.841v-0.539v-2.435V39.561h0.103c1.586,0,2.88-1.291,2.88-2.869V25.37
	C63.977,23.792,62.683,22.501,61.097,22.501z M42.413,5.944c2.103-0.31,4.982,1.299,5.255,3.209c0.393,2.756-3.4,5.255-5.086,6.421
	c-2.523,1.744-4.928,2.643-7.287,4.055C36.179,15.939,37.844,6.618,42.413,5.944z M19.531,15.912
	c-2.225-1.485-6.544-4.431-6.44-7.771c0.112-3.595,5.743-6.57,8.814-3.886c3.856,3.371,5.713,11.105,7.119,16.557
	C25.775,19.273,22.696,18.024,19.531,15.912z M25.503,73.026H6.136V39.561h19.368V73.026z M25.503,36.524H3.046V25.538h22.457
	V36.524z M35.66,36.524v3.037v33.466h-7.174V39.561v-3.037V25.538h7.174V36.524z M58.011,73.026H38.644V39.561h19.367V73.026z
	 M60.931,36.524H38.644V25.538h22.287V36.524z"/>
</svg>
